images/other-x.svg

<svg width="148" height="128" viewBox="0 0 148 128" fill="none" xmlns="http://www.w3.org/2000/svg">
<path d="M117.291 91.4636C105.096 98.5322 87.8731 100.462 71.9252 99.7806C69.2397 99.6658 62.3479 98.2684 59.3235 96.2521C59.3235 96.2521 42.6837 99.6717 40.6731 99.2766V89.5038C38.2849 88.497 36.0012 87.3693 33.8471 86.1207C11.603 73.2271 11.603 52.3223 33.8471 39.4286C56.0912 26.5349 89.7544 29.9273 111.998 42.821C134.243 55.7147 135.438 82.1384 117.291 91.4636Z" fill="url(#paint0_linear_1812_47294)"/>
<path d="M107.058 91.7245C82.9762 98.3593 49.0342 89.5216 31.2462 71.9851C22.8484 63.706 19.5524 54.9682 20.9467 47.3519L23.6147 36.9164C21.7212 44.765 24.9264 53.9145 33.6993 62.5634C51.4873 80.1 85.4294 88.9376 109.511 82.3029C121.338 79.0443 128.588 72.6596 130.795 64.9279L131.015 64.0856C130.948 64.3681 130.875 64.6489 130.795 64.9279L128.342 74.3493C126.135 82.0811 118.885 88.4659 107.058 91.7245Z" fill="#79EFBD" stroke="#0D0B33" stroke-width="0.59185"/>
<path d="M109.64 81.8161C85.5582 88.4509 51.6162 79.6132 33.8282 62.0767C16.0402 44.5401 21.1422 24.9454 45.2238 18.3106C69.3054 11.6759 103.247 20.5135 121.035 38.0501C138.823 55.5866 133.721 75.1814 109.64 81.8161Z" fill="#F7F6FF" stroke="#0D0B33" stroke-width="0.59185"/>
<path d="M23.28 38.5357C22.7759 47.609 25.8003 52.9019 30.589 58.9507L28.1574 68.3098C23.3221 62.5709 20.8189 59.1701 20.3158 49.5727L23.28 38.5357Z" fill="#0D0B33"/>
<path d="M34.3692 62.7712L38.2549 66.168L35.63 76.0878L31.5974 72.5594L34.3692 62.7712Z" fill="#0D0B33"/>
<path d="M85.7741 28.21L94.1552 25.4297L86.533 40.9884C83.7708 46.621 73.53 50.0182 63.6548 48.578L36.3867 44.5937L44.7746 41.8112L65.4852 44.8389C68.4978 45.2752 71.7063 45.0156 74.4171 44.1164C77.1279 43.2171 79.1233 41.7503 79.972 40.033L85.7741 28.21Z" fill="#0D0B33"/>
<path d="M71.9725 69.0216L63.5857 71.8038L71.2606 56.1473C74.0229 50.5147 84.2637 47.1174 94.1388 48.5577L121.574 52.5669L113.193 55.3472L92.3085 52.2968C89.2958 51.8605 86.0873 52.12 83.3765 53.0193C80.6657 53.9186 78.6703 55.3854 77.8216 57.1026L71.9725 69.0216Z" fill="#0D0B33"/>
<defs>
<linearGradient id="paint0_linear_1812_47294" x1="-10.7841" y1="38.5998" x2="-4.38811" y2="92.2545" gradientUnits="userSpaceOnUse">
<stop stop-color="white"/>
<stop offset="1" stop-color="white" stop-opacity="0"/>
</linearGradient>
</defs>
</svg>

<svg xmlns="http://www.w3.org/2000/svg" width="148" height="128" fill="none"><path fill="url(#a)" d="M117.291 91.464c-12.195 7.068-29.418 8.998-45.366 8.317-2.685-.115-9.577-1.513-12.601-3.529 0 0-16.64 3.42-18.65 3.025v-9.773a60.397 60.397 0 0 1-6.827-3.383c-22.244-12.894-22.244-33.799 0-46.692 22.244-12.894 55.907-9.502 78.151 3.392 22.245 12.894 23.44 39.317 5.293 48.643Z"/><path fill="#79EFBD" stroke="#0D0B33" stroke-width=".592" d="M107.058 91.725c-24.082 6.634-58.024-2.203-75.812-19.74-8.398-8.279-11.694-17.017-10.3-24.633l2.669-10.436c-1.894 7.849 1.311 16.998 10.084 25.647 17.788 17.537 51.73 26.375 75.812 19.74 11.827-3.259 19.077-9.643 21.284-17.375l.22-.842c-.067.282-.14.563-.22.842l-2.453 9.421c-2.207 7.732-9.457 14.117-21.284 17.376Z"/><path fill="#F7F6FF" stroke="#0D0B33" stroke-width=".592" d="M109.64 81.816c-24.082 6.635-58.024-2.203-75.812-19.74C16.04 44.54 21.142 24.947 45.224 18.312c24.081-6.635 58.023 2.203 75.811 19.74 17.788 17.536 12.686 37.13-11.395 43.765Z"/><path fill="#0D0B33" d="M23.28 38.536c-.504 9.073 2.52 14.366 7.309 20.415l-2.432 9.359c-4.835-5.74-7.338-9.14-7.841-18.737l2.964-11.037ZM34.37 62.771l3.885 3.397-2.625 9.92-4.033-3.529 2.772-9.788ZM85.774 28.21l8.381-2.78-7.622 15.558c-2.762 5.633-13.003 9.03-22.878 7.59l-27.268-3.984 8.388-2.783 20.71 3.028c3.013.436 6.221.177 8.932-.723 2.71-.899 4.706-2.366 5.555-4.083l5.802-11.823ZM71.972 69.022l-8.386 2.782 7.675-15.657c2.762-5.632 13.003-9.03 22.878-7.59l27.435 4.01-8.381 2.78-20.885-3.05c-3.012-.436-6.22-.177-8.932.722-2.71.9-4.706 2.366-5.554 4.084l-5.85 11.919Z"/><defs><linearGradient id="a" x1="-10.784" x2="-4.388" y1="38.6" y2="92.254" gradientUnits="userSpaceOnUse"><stop stop-color="#fff"/><stop offset="1" stop-color="#fff" stop-opacity="0"/></linearGradient></defs></svg>
